X:166
T: Der grausame Bruder
N: Q0068K
O: Mitteleuropa, Deutschland / Frankreich, Lothringen, Hambach
N: Letzten Notenwert der dritten Zeile rhythmisch korrigiert.
R: Ballade, Schwangerschaft, Moral, Mord
M: 3/8
L: 1/16
K: G
GB | d4BG | B4Bd | B2G2D2 | E3
DFA | G4Bd | d4A2 | G4
GB | d4BG | B4Be | d4BG | A2z
DFA | G4A2 | GGG2B2 | d4F2 | G4

@@@ Tune index: 1042
